FINK
CUT[ICH BIN EIN FRANZOSE MESDAMES]
REG[Europa, Mitteleuropa, Deutschland]
KEY[F0084  08  C 6/8]
MEL[1  -3-51-3-51  -5_13_
    3  21-71-62  -5_.0_
    -5  43221-7  1_3-5_
    -5  -643212  3_.
    2_.  111-7-6-7  1_.0_ //] >>
FCT[Spott -, Scherz - Lied]
